X: 191
T:Muñeiras de Boal
M:6/8
L:1/8
Q:200
C:Trad
R:Muñeiras
B:Metodo de Gaita. Dayures
K:C
GAB |: cBA GAG | E2C G2G| GAG FEF |
G2G GAB | cBA GAG | E2C G2G| GAG FED |1
C3 GAB :|2 C3 CDE |: CDE CDE | F2F DEF |
DEF DEF | G2G CDE | CDE CDE |F2F DEF |
GAGFED |1 E2C CDE :|2 C3 CDE |: F3 F2F |
EDC E2 E | EDC B,CD | EDC CDE |F2F AGF |
EDC E2E | EDC B,CD |1 C3 CDE :|2 C6- | C3 ||

